static/icons/twitter.svg

<svg xmlns="http://www.w3.org/2000/svg" width="24" height="24" viewBox="0 0 24 24">
  <path fill-rule="evenodd" d="M20,7.54314721 C19.5532995,8.1928934 18.9949239,8.7715736 18.3553299,9.23857868 C18.3654822,9.38071066 18.3654822,9.52284264 18.3654822,9.66497462 C18.3654822,14 15.0659898,18.9949239 9.03553299,18.9949239 C7.17766497,18.9949239 5.45177665,18.4568528 4,17.5228426 C4.26395939,17.5532995 4.5177665,17.5634518 4.79187817,17.5634518 C6.3248731,17.5634518 7.73604061,17.0456853 8.86294416,16.1624365 C7.4213198,16.1319797 6.21319797,15.1878173 5.79695431,13.8883249 C6,13.9187817 6.20304569,13.9390863 6.41624365,13.9390863 C6.7106599,13.9390863 7.00507614,13.8984772 7.27918782,13.8274112 C5.77664975,13.5228426 4.64974619,12.2030457 4.64974619,10.6091371 L4.64974619,10.5685279 C5.08629442,10.8121827 5.59390863,10.964467 6.1319797,10.9847716 C5.24873096,10.3959391 4.67005076,9.39086294 4.67005076,8.25380711 C4.67005076,7.64467005 4.83248731,7.08629442 5.11675127,6.59898477 C6.73096447,8.58883249 9.15736041,9.88832487 11.8781726,10.0304569 C11.8274112,9.78680203 11.7969543,9.53299492 11.7969543,9.27918782 C11.7969543,7.47208122 13.2588832,6 15.0761421,6 C16.0203046,6 16.8730964,6.39593909 17.4720812,7.03553299 C18.213198,6.89340102 18.9238579,6.61928934 19.5532995,6.24365482 C19.3096447,7.00507614 18.7918782,7.64467005 18.1116751,8.05076142 C18.7715736,7.97969543 19.4111675,7.79695431 20,7.54314721 Z"/>
</svg>

<svg xmlns="http://www.w3.org/2000/svg" width="24" height="24">
    <path fill-rule="evenodd" d="M20 7.543a7.05 7.05 0 0 1-1.645 1.696c.01.142.01.284.01.426 0 4.335-3.299 9.33-9.33 9.33A9.266 9.266 0 0 1 4 17.523c.264.03.518.04.792.04a6.567 6.567 0 0 0 4.07-1.4 3.285 3.285 0 0 1-3.065-2.275c.203.03.406.051.62.051.294 0 .588-.04.862-.112a3.28 3.28 0 0 1-2.63-3.218v-.04c.437.243.945.395 1.483.416A3.277 3.277 0 0 1 4.67 8.254c0-.61.162-1.168.447-1.655a9.32 9.32 0 0 0 6.761 3.431 3.701 3.701 0 0 1-.081-.75A3.278 3.278 0 0 1 15.077 6a3.27 3.27 0 0 1 2.395 1.036 6.456 6.456 0 0 0 2.081-.792 3.27 3.27 0 0 1-1.441 1.807c.66-.071 1.3-.254 1.888-.508z"/>
</svg>
